src/images/single-assets/LAMBDA.svg

<svg xmlns="http://www.w3.org/2000/svg" shape-rendering="crispEdges" viewBox="0 -0.5 30 30"><defs><radialGradient id="a"><stop offset="0%" stop-color="#e63ad1"/><stop offset="100%" stop-color="#73c6f4"/></radialGradient></defs><path stroke="url(#a)" d="M8 4h14M8 5h14M6 6h18M6 7h18M4 8h22M4 9h22M4 10h22M4 11h22M4 12h22M4 13h22M4 14h22M4 15h22M4 16h22M4 17h22M4 18h22M4 19h22M4 20h22M4 21h22M6 22h18M6 23h18M8 24h14M8 25h14"/><path stroke="#e63ad1" d="M8 0h14M8 1h14M6 2h2m14 0h2M6 3h2m14 0h2M4 4h2m18 0h2M4 5h2m18 0h2M2 6h2m22 0h2M2 7h2m22 0h2M0 8h2m26 0h2M0 9h2m26 0h2M0 10h2m26 0h2M0 11h2m26 0h2M0 12h2m26 0h2M0 13h2m26 0h2M0 14h2m26 0h2M0 15h2m26 0h2M0 16h2m26 0h2M0 17h2m26 0h2M0 18h2m26 0h2M0 19h2m26 0h2M0 20h2m26 0h2M0 21h2m26 0h2M2 22h2m22 0h2M2 23h2m22 0h2M4 24h2m18 0h2M4 25h2m18 0h2M6 26h2m14 0h2M6 27h2m14 0h2M8 28h14M8 29h14"/><path stroke="#a684e2" d="M8 2h14M8 3h14M6 4h2m14 0h2M6 5h2m14 0h2M4 6h2m18 0h2M4 7h2m18 0h2M2 8h2m22 0h2M2 9h2m22 0h2M2 10h2m22 0h2M2 11h2m22 0h2M2 12h2m22 0h2M2 13h2m22 0h2M2 14h2m22 0h2M2 15h2m22 0h2M2 16h2m22 0h2M2 17h2m22 0h2M2 18h2m22 0h2M2 19h2m22 0h2M2 20h2m22 0h2M2 21h2m22 0h2M4 22h2m18 0h2M4 23h2m18 0h2M6 24h2m14 0h2M6 25h2m14 0h2M8 26h14M8 27h14"/><path stroke="#fff" d="M13 6h4m-4 1h4m-4 1h4m-5 1h6m-6 1h2m2 0h2m-6 1h2m2 0h2m-7 1h3m2 0h3m-8 1h2m4 0h2m-8 1h2m4 0h2m-9 1h3m4 0h3m-10 1h2m6 0h2m-10 1h2m6 0h2M9 18h3m6 0h3M9 19h2m8 0h2M8 20h3m8 0h3M8 21h4m6 0h4"/><path stroke="#73c6f4" d="M17 6h1m-1 1h1m-1 1h1m0 1h1m-5 1h1m3 0h1m-5 1h1m3 0h1m-5 1h1m4 0h1m-7 1h1m5 0h1m-7 1h1m5 0h1m-7 1h1m6 0h1m-9 1h1m7 0h1m-9 1h1m7 0h1m-9 1h1m8 0h1m-11 1h1m9 0h1m-11 1h1m10 0h1m-11 1h1m9 0h1"/></svg>

<?xml version="1.0" encoding="UTF-8"?>
<!DOCTYPE svg PUBLIC "-//W3C//DTD SVG 1.1//EN"
  "http://www.w3.org/Graphics/SVG/1.1/DTD/svg11.dtd">
<svg xmlns="http://www.w3.org/2000/svg" version="1.1" viewBox="0 -0.5 30 30" shape-rendering="crispEdges">

  <!-- Gradient -->
  <defs>
    <radialGradient id="RadialGradient1">
      <stop offset="0%" stop-color="#e63ad1" />
      <stop offset="100%" stop-color="#73c6f4" />
    </radialGradient>
  </defs>
  <!-- Light Blue Path -->
  <path stroke="url(#RadialGradient1)" d="M8 4h14M8 5h14M6 6h18M6 7h18M4 8h22M4 9h22M4 10h22M4 11h22M4 12h22M4 13h22M4 14h22M4 15h22M4 16h22M4 17h22M4 18h22M4 19h22M4 20h22M4 21h22M6 22h18M6 23h18M8 24h14M8 25h14" />
  <!-- Purple Path -->
  <path stroke="#e63ad1" d="M8 0h14M8 1h14M6 2h2M22 2h2M6 3h2M22 3h2M4 4h2M24 4h2M4 5h2M24 5h2M2 6h2M26 6h2M2 7h2M26 7h2M0 8h2M28 8h2M0 9h2M28 9h2M0 10h2M28 10h2M0 11h2M28 11h2M0 12h2M28 12h2M0 13h2M28 13h2M0 14h2M28 14h2M0 15h2M28 15h2M0 16h2M28 16h2M0 17h2M28 17h2M0 18h2M28 18h2M0 19h2M28 19h2M0 20h2M28 20h2M0 21h2M28 21h2M2 22h2M26 22h2M2 23h2M26 23h2M4 24h2M24 24h2M4 25h2M24 25h2M6 26h2M22 26h2M6 27h2M22 27h2M8 28h14M8 29h14" />
  <!-- Magenta Path -->
  <path stroke="#a684e2" d="M8 2h14M8 3h14M6 4h2M22 4h2M6 5h2M22 5h2M4 6h2M24 6h2M4 7h2M24 7h2M2 8h2M26 8h2M2 9h2M26 9h2M2 10h2M26 10h2M2 11h2M26 11h2M2 12h2M26 12h2M2 13h2M26 13h2M2 14h2M26 14h2M2 15h2M26 15h2M2 16h2M26 16h2M2 17h2M26 17h2M2 18h2M26 18h2M2 19h2M26 19h2M2 20h2M26 20h2M2 21h2M26 21h2M4 22h2M24 22h2M4 23h2M24 23h2M6 24h2M22 24h2M6 25h2M22 25h2M8 26h14M8 27h14" />

  <!-- Logo Front -->
  <path stroke="#ffffff" d="M13 6h4M13 7h4M13 8h4M12 9h6M12 10h2M16 10h2M12 11h2M16 11h2M11 12h3M16 12h3M11 13h2M17 13h2M11 14h2M17 14h2M10 15h3M17 15h3M10 16h2M18 16h2M10 17h2M18 17h2M9 18h3M18 18h3M9 19h2M19 19h2M8 20h3M19 20h3M8 21h4M18 21h4" />

  <path stroke="#73c6f4" d="M17 6h1M17 7h1M17 8h1M18 9h1M14 10h1M18 10h1M14 11h1M18 11h1M14 12h1M19 12h1M13 13h1M19 13h1M13 14h1M19 14h1M13 15h1M20 15h1M12 16h1M20 16h1M12 17h1M20 17h1M12 18h1M21 18h1M11 19h1M21 19h1M11 20h1M22 20h1M12 21h1M22 21h1" />

</svg>
